X: 841
M: C
L: 1/8
K: Ddor
V: 1
|:\
defg afdg | Te>dcg ecge |
defg afdg | ecge d/d/d d2 |\
defg afdg | Te>dcg ecge |\
defg afgf | ecge d/d/d d2 :|
V: 2 clef=bass middle=d
|:\
d2d2 d2d2 | c2c2 c2c2 |\
d2d2 d2d2 | A2A2 D2D2 :|\
d2d2 d2d2 | c2c2 c2c2 |
d2d2 d2d2 | A2A2 D2D2 |\
d2d2 d2d2 | c2c2 c2c2 |\
d2e2 f2g2 | a2a2 d2d2 :|

